X:1
T:Precious Promise
T:Precious Promise
T:Philip Paul Bliss
T:Nathaniel Niles, 1873
T:Public Domain Courtesy of the Cyber Hymnal™
C:Philip Paul Bliss
Z:Public Domain
Z:Courtesy of the Cyber Hymnal™
%%score ( 1 2 ) ( 3 4 )
L:1/8
M:9/8
K:G
V:1 treble 
V:2 treble 
V:3 bass 
V:4 bass 
V:1
 (D[^CE])[=CF] | [B,G]3 [B,G]3 ([B,G][CA])[DB] | E3 E3 (E[DF])[^CG] | [DA]3 [DA]3 (AG)[DA] | %4
w: 1.~Pre- * cious|prom- ise God * hath|giv- en To * the|wear- y pass- * er-|
w: 2.~When * temp-|ta- tions al- * most|win thee, And * thy|trust- ed watch- * ers|
w: 3.~When * thy|sec- ret hopes * have|per- ished In * the|grave of years * gone|
w: 4.~When * the|shades of life * are|fall- ing, And * the|hour has come * to|
 [DB]6 ([GB][FA])[=FB] | [Ec]3 [Ec]3 ([Ec][=Fd])[Ge] | [Ge]3 [Gd]3 ([Bd][Ac])[GB] | %7
w: by, On * the|way from earth * to|Heav- en, “I * will|
w: fly, Let * the|prom- ise ring * with-|in thee, “I * will|
w: by, Let * this|prom- ise still * be|cher- ished, “I * will|
w: die, Hear * the|trust- y pi- * lot|call- ing, “I * will|
 [FA]3 [FA]3 ([FA][GB])[E^c] | [Fd]6 ||"^Refrain" ([Bd][Ac])[GB] | [GB]3 [FA]3 ([FA][GB])[Ac] | %11
w: guide thee with * Mine|eye.”|||
w: guide thee with * Mine|eye.”|||
w: guide thee with * Mine|eye.”|||
w: guide thee with * Mine|eye.”|||
 [Ac]3 [GB]3 ([GB]A)[GB] | [Gd]3 [GB]3 (BA)G | [FA]6 (D[^CE])[=CF] | %14
w: |||
w: |||
w: |||
w: |||
 [B,G]3 [B,G]3 ([B,G][CA])[DB] | [Ec]3 !fermata![Ge]3 ([Ge][Fd])[Ec] | [DB]3 [Dd]3 (cB)[CA] | %17
w: |||
w: |||
w: |||
w: |||
 [B,G]6 |] %18
w: |
w: |
w: |
w: |
V:2
 x3 | x9 | E3 E3 x3 | x6 D2 x | x9 | x9 | x9 | x9 | x6 || x3 | x9 | x9 | x6 G2 G | x9 | x9 | x9 | %16
 x6 D2 x | x6 |] %18
V:3
 (D,G,)[D,A,] | G,3 G,3 G,2 G, | [C,G,]3 [C,G,]3 G,2 [E,G,] | [D,F,]3 [D,F,]3 (F,E,)[D,F,] | %4
w: ~ * ~|~ ~ ~ ~|~ ~ ~ ~|~ ~ ~ * ~|
 G,6 G,2 G, | [C,G,]3 [C,G,]3 [C,G,]2 [C,C] | [G,C]3 [G,B,]3 [G,D]2 [G,D] | [A,D]3 [A,D]3 A,2 A, | %8
w: ~ ~ ~|~ ~ ~ ~|~ ~ ~ ~|~ ~ ~ ~|
 [D,A,]6 || [D,D]2 [D,D] | [D,D]3 [D,D]3 [D,D]2 [D,D] | [G,D]3 [G,D]3 D2 [G,D] | %12
w: ~|I will|guide thee, I will|guide thee, I will|
 [B,D]3 [G,D]3 (DC)[G,B,] | [D,D]6 (F,G,)[D,A,] | G,3 G,3 G,2 G, | %15
w: guide thee with * Mine|eye; On * the|way from earth to|
 [C,G,]3 !fermata![C,C]3 [C,G,]2 [C,G,] | [D,G,]3 [D,B,]3 (A,G,)[D,F,] | [G,,G,]6 |] %18
w: Heav- en, I will|guide thee with * Mine|eye.|
V:4
 D,2 x | G,3 G,3 G,2 G, | x6 (C,D,) x | x6 D,2 x | G,6 G,2 G, | x9 | x9 | x6 A,2 A, | x6 || x3 | %10
 x9 | x6 (G,F,) x | x6 G,2 x | x6 D,2 x | G,3 G,3 G,2 G, | x9 | x6 D,2 x | x6 |] %18

